X: 13
T: Off To California
Z: John E Roche
S: https://thesession.org/tunes/30#setting46963
R: hornpipe
M: 4/4
L: 1/8
K: Amaj
|:E2|A>Bc>A|B>AF>E|A>ce>a f2 f>g|a>ga>b a>fe>d|B>cB>A F2 E2|
A>Bc>A B>AF>E|A>ce>a f2 f>g|a>ga>f e>fe>c|B>dc>B A2:|
|:c>d|e>ag>a b>gf>e|f>ag>b a3 e|f>ga>e f>ec>A|B>cB>A F2 E2|
A>Bc>A B>AF>E|A>ce>a f2 f>g|a>ga>f e>fe>c|B>dc>B A2:|

